projects/elonkit/src/assets/elonkit/empty-state/file.svg

<svg width="56" height="56" viewBox="0 0 56 56" fill="none" xmlns="http://www.w3.org/2000/svg">
  <path fill-rule="evenodd" clip-rule="evenodd"
    d="M45 19H39.9996V40C39.9996 42.7614 37.7611 45 34.9996 45H11.083C11.559 47.8377 14.027 50 17 50H39C42.3137 50 45 47.3137 45 44V19ZM17 52C12.9204 52 9.55399 48.9463 9.06189 45H9.06152C9.55362 48.9463 12.92 52 16.9996 52H17Z"
    data-mono-a="A50" />
  <path fill-rule="evenodd" clip-rule="evenodd"
    d="M32 6V13C32 16.3137 34.6863 19 38 19H45V44C45 47.3137 42.3137 50 39 50H17C13.6863 50 11 47.3137 11 44V12C11 8.68629 13.6863 6 17 6H32ZM47 18C47 17.6613 46.9644 17.3263 46.8953 17C46.7032 16.0924 46.2518 15.2518 45.5858 14.5858L36.4142 5.41421C35.7482 4.74818 34.9076 4.29682 34 4.10467C33.6737 4.03558 33.3387 4 33 4H17C12.5817 4 9 7.58172 9 12V44C9 48.4183 12.5817 52 17 52H39C43.4183 52 47 48.4183 47 44V18ZM35 6.82843C34.7135 6.54192 34.3718 6.32322 34 6.18268V13C34 15.2091 35.7909 17 38 17H44.8173C44.6768 16.6282 44.4581 16.2865 44.1716 16L35 6.82843ZM25.162 20.8406C25.9219 20.316 26.8935 20 28.101 20C29.3393 20 30.3852 20.379 31.1936 21.0392C31.9934 21.6924 32.5086 22.5774 32.7752 23.516C33.2992 25.3612 32.9067 27.5762 31.5891 29.0888C29.4739 31.517 29.1476 32.3816 28.9796 33.2009C28.8687 33.7419 28.3402 34.0906 27.7991 33.9796C27.2581 33.8687 26.9094 33.3402 27.0204 32.7991C27.2926 31.4717 27.8907 30.2896 30.081 27.7751C30.9161 26.8164 31.2071 25.3154 30.8513 24.0624C30.6779 23.4519 30.3622 22.9424 29.9285 22.5882C29.5035 22.2411 28.9133 22 28.101 22C27.2581 22 26.6917 22.2149 26.2983 22.4865C25.8968 22.7637 25.6135 23.1432 25.4132 23.5582C25.2113 23.9764 25.1053 24.4071 25.0514 24.7422C25.0248 24.9072 25.0119 25.0427 25.0056 25.1332C25.0025 25.1782 25.0011 25.2116 25.0005 25.2313L25 25.2502C24.9977 25.8005 24.5509 26.2468 24 26.2468C23.4477 26.2468 23 25.7991 23 25.2468C24.0099 25.2468 24.0615 25.2468 23 25.2468V25.2447L23 25.2422L23 25.2361L23.0002 25.2191C23.0005 25.2057 23.0008 25.1882 23.0015 25.167C23.0029 25.1245 23.0055 25.0666 23.0104 24.9955C23.0202 24.8537 23.0393 24.6574 23.0768 24.4244C23.151 23.9631 23.3014 23.3322 23.6121 22.6886C23.9243 22.0419 24.4101 21.3597 25.162 20.8406ZM29 37C29 37.5523 28.5523 38 28 38C27.4477 38 27 37.5523 27 37C27 36.4477 27.4477 36 28 36C28.5523 36 29 36.4477 29 37Z"
    data-mono-a="A400" />
</svg>

<svg width="56" height="56" fill="none" xmlns="http://www.w3.org/2000/svg"><path fill-rule="evenodd" clip-rule="evenodd" d="M45 19h-5v21a5 5 0 01-5 5H11.083A6.002 6.002 0 0017 50h22a6 6 0 006-6V19zM17 52a8.001 8.001 0 000 0z" fill="#000" fill-opacity=".04"/><path fill-rule="evenodd" clip-rule="evenodd" d="M32 6v7a6 6 0 006 6h7v25a6 6 0 01-6 6H17a6 6 0 01-6-6V12a6 6 0 016-6h15zm15 12a4.826 4.826 0 00-1.414-3.414l-9.172-9.172A4.828 4.828 0 0033 4H17a8 8 0 00-8 8v32a8 8 0 008 8h22a8 8 0 008-8V18zM35 6.828a2.828 2.828 0 00-1-.645V13a4 4 0 004 4h6.817a2.828 2.828 0 00-.645-1L35 6.828zm-9.838 14.013c.76-.525 1.732-.841 2.939-.841 1.238 0 2.284.379 3.093 1.04.8.652 1.315 1.537 1.581 2.476.524 1.845.132 4.06-1.186 5.573-2.115 2.428-2.441 3.293-2.61 4.112a1 1 0 11-1.959-.402c.273-1.327.87-2.51 3.061-5.024.835-.959 1.126-2.46.77-3.713-.173-.61-.489-1.12-.922-1.474-.425-.347-1.016-.588-1.828-.588-.843 0-1.41.215-1.803.486-.401.278-.684.657-.885 1.072a4.355 4.355 0 00-.362 1.184 4.401 4.401 0 00-.05.49L25 25.25a1 1 0 01-2-.003c1.01 0 1.061 0 0 0v-.028c0-.013 0-.03.002-.052 0-.043.004-.1.008-.172.01-.141.03-.338.067-.57a6.352 6.352 0 01.535-1.736c.312-.647.798-1.33 1.55-1.848zM29 37a1 1 0 11-2 0 1 1 0 012 0z" fill="#000" fill-opacity=".22"/></svg>
